icon-svg/great-wall.svg

<svg xmlns="http://www.w3.org/2000/svg" fill="#44739e" viewBox="0 0 24 24"><path d="M20.527 12.514c0-3.311-3.777-6-8.458-6.041h-.117c-4.681.041-8.458 2.73-8.458 6.041a4.753 4.753 0 0 0 1.663 3.455l-.012.008c2.465 2.29 6.786 2.888 6.786.441V9.054l-3.482 1.917v2.747a1.764 1.764 0 0 1-1.384 1.94 1.9 1.9 0 0 1-.288.022 2.31 2.31 0 0 1-1.067-.273 2.28 2.28 0 0 1-.542-.4 3.37 3.37 0 0 1-.842-2.488C4.337 9.5 7.78 7.044 12 7.044h.069c4.188.027 7.593 2.47 7.6 5.47A3.377 3.377 0 0 1 18.832 15a2.29 2.29 0 0 1-.527.4 2.25 2.25 0 0 0 .55.578 4.756 4.756 0 0 0 1.672-3.463zM18.305 15.4a2.314 2.314 0 0 1-1.082.281 1.9 1.9 0 0 1-.289-.022 1.763 1.763 0 0 1-1.383-1.938v-2.749l-3.482-1.916v7.362c0 2.447 4.321 1.849 6.786-.441a2.24 2.24 0 0 1-.55-.577M12 5.738c-5.523 0-10 3.034-10 6.776s4.477 6.775 10 6.775 10-3.033 10-6.775-4.477-6.776-10-6.776m0 13.02c-4.892 0-8.857-2.8-8.857-6.244S7.108 6.269 12 6.269s8.857 2.8 8.857 6.245-3.965 6.244-8.857 6.244"/></svg>

<?xml version="1.0" encoding="UTF-8"?>
<svg width="24px" fill="#44739e" height="24px" viewBox="0 0 24 24" version="1.1" xmlns="http://www.w3.org/2000/svg" xmlns:xlink="http://www.w3.org/1999/xlink">
            <path d="m 20.527,12.514 c 0,-3.311 -3.777,-6 -8.458,-6.041 H 11.952 C 7.271,6.514 3.494,9.203 3.494,12.514 a 4.753,4.753 0 0 0 1.663,3.455 l -0.012,0.008 c 2.465,2.29 6.786,2.888 6.786,0.441 V 9.054 l -3.482,1.917 v 2.747 A 1.764,1.764 0 0 1 7.065,15.658 1.9,1.9 0 0 1 6.777,15.68 2.308,2.308 0 0 1 5.71,15.407 2.282,2.282 0 0 1 5.168,15.007 3.371,3.371 0 0 1 4.326,12.519 C 4.337,9.5 7.78,7.044 12,7.044 h 0.069 c 4.188,0.027 7.593,2.47 7.6,5.47 A 3.377,3.377 0 0 1 18.832,15 a 2.285,2.285 0 0 1 -0.527,0.4 2.253,2.253 0 0 0 0.55,0.578 4.756,4.756 0 0 0 1.672,-3.463 z M 18.305,15.4 a 2.314,2.314 0 0 1 -1.082,0.281 v 0 A 1.924,1.924 0 0 1 16.934,15.659 1.763,1.763 0 0 1 15.551,13.721 V 10.972 L 12.069,9.056 v 7.362 c 0,2.447 4.321,1.849 6.786,-0.441 A 2.237,2.237 0 0 1 18.305,15.4 Z M 12,5.738 c -5.523,0 -10,3.034 -10,6.776 0,3.742 4.477,6.775 10,6.775 5.523,0 10,-3.033 10,-6.775 C 22,8.772 17.523,5.738 12,5.738 Z m 0,13.02 c -4.892,0 -8.857,-2.8 -8.857,-6.244 0,-3.444 3.965,-6.245 8.857,-6.245 4.892,0 8.857,2.8 8.857,6.245 0,3.445 -3.965,6.244 -8.857,6.244 z"/>

</svg>
